src/icons/outline/symbols/payment.svg

<svg width="24" height="24" viewBox="0 0 24 24" fill="none" xmlns="http://www.w3.org/2000/svg">
<g clip-path="url(#clip0_6020_987)">
<path d="M8.87305 16.084C9.28323 16.084 9.62402 16.4188 9.62402 16.8223C9.62381 17.2255 9.28311 17.5596 8.87305 17.5596H4.09082C3.68091 17.5594 3.34103 17.2254 3.34082 16.8223C3.34082 16.4189 3.68079 16.0842 4.09082 16.084H8.87305Z" fill="#3C3B44"/>
<path fill-rule="evenodd" clip-rule="evenodd" d="M20.8789 4C21.7293 4 23 4.55108 23 6.05664V17.9434C23 18.7699 22.4396 20 20.8789 20H3.12109C2.27071 20 1 19.4489 1 17.9434V6.05664C1 5.23006 1.56038 4 3.12109 4H20.8789ZM21.3096 10.9375H2.50098V17.9434C2.50098 18.3173 2.71074 18.5145 3.13086 18.5244H20.8789C21.029 18.5244 21.479 18.524 21.499 17.9336V10.9229C21.437 10.9309 21.374 10.9375 21.3096 10.9375ZM3.12109 5.47559C2.97103 5.47559 2.52101 5.47605 2.50098 6.06641V8.18164H21.3096C21.3739 8.18165 21.437 8.18804 21.499 8.19629V6.05664C21.499 5.68274 21.2893 5.48545 20.8691 5.47559H3.12109Z" fill="#3C3B44"/>
</g>
<defs>
<clipPath id="clip0_6020_987">
<rect width="24" height="24" fill="white"/>
</clipPath>
</defs>
</svg>

<svg xmlns="http://www.w3.org/2000/svg" width="24" height="24" fill="none" viewBox="0 0 24 24"><g fill="currentColor" clip-path="url(#a)"><path d="M8.873 16.084a.75.75 0 0 1 .751.738.75.75 0 0 1-.751.738H4.091a.75.75 0 0 1-.75-.738.75.75 0 0 1 .75-.738z"/><path fill-rule="evenodd" d="M20.879 4C21.729 4 23 4.551 23 6.057v11.886C23 18.77 22.44 20 20.879 20H3.12C2.271 20 1 19.449 1 17.943V6.057C1 5.23 1.56 4 3.121 4zm.43 6.938H2.502v7.005c0 .374.21.572.63.581H20.88c.15 0 .6 0 .62-.59v-7.011a2 2 0 0 1-.19.014M3.122 5.476c-.15 0-.6 0-.62.59v2.116H21.31q.096.001.189.014v-2.14c0-.373-.21-.57-.63-.58z" clip-rule="evenodd"/></g><defs><clipPath id="a"><path fill="currentColor" d="M0 0h24v24H0z"/></clipPath></defs></svg>
